X: 28429
T: Mullhere's
R: reel
M: 4/4
K: Dmixolydian
|:dDde fded|cBcG EFGB|AG ~G2 Adfd|^cdef gefe|
defd edcA|GAAG EFGB|ADdD B/c/d ed|cAGE DEFA:|
|:dDde fdAB|c2 Gc EcGc|dAAG FGAB|cBcd efge|
dDde fded|^cdef gd e/f/g|fd B/c/d ed B/c/d|eage dAFA:|

